X:1
T:No6. Jesus rufet: Ach, mich dürstet!
L:1/8
Q:1/4=71
M:2/2
K:A
V:1 bass nm="Piano" snm="Pno."
V:1
"^Adagio" A,,/ | !fermata!A,,8 |:"^pizz." A,,4 z4 | A,,4 z4 | A,,4 z4 | E,4 z4 | A,,4 z4 | %7
 A,,4 z4 | A,,4 z4 | E,4 z4 | A,,4 z4 | A,,4 z4 | A,,4 z4 | F,4 z4 | E,4 z4 | E,4 z4 | %16
 E,2 z2"^coll' arco" E,2 E,2 | !fermata!E,8 | z2!f! !wedge!=G,2 !wedge!^D,2 !wedge!E,2 | %19
 =C,4 B,,4 | z2 !wedge!A,2 !wedge!E,2 F,2 | ^D,4 ^D4 | z2 !wedge!B,2 !wedge!F,2 !wedge!G,2 | %23
 ^E,4 C4 | z2 !wedge!=D2 !wedge!F,2 !wedge!=C2 | B,4 A,4 | =G,4 F,4 | E,4 D,4 | C,4 ^B,,4 | %29
 C,4 ^B,,4 | C,2 z2 z4 | z8 | z8 | z8 | z8 |!p! (C4 =C2) z2 | (B,4 ^A,2) z2 | B,4 B,,4 | E,4 z4 | %39
 E,4 z4 | E,4 z4 | E,4 z4 | C,4 z4 | B,,4 z4 | z8 | z8 | (A,4 G,2) z2 | (G,4 E,2) z2 | %48
 (A,,4 F,,2) z2 | !wedge!B,,!wedge!^B,,!wedge!C,!wedge!^D, !wedge!E,!wedge!^E,!wedge!F,!wedge!G, | %50
 !wedge!A,!wedge!^A,!wedge!B,!wedge!C B,2 B,,2 |!ff! !wedge!E,2 !wedge!C2 !wedge!^A,2 !wedge!B,2 | %52
 =G,4 F,2 ^G,>^A, | !wedge!B,!wedge!E,!wedge!E,!wedge!E, !wedge!E,!wedge!E,!wedge!E,!wedge!E, | %54
 E,E,E,E, E,E,E,E, | ^D,D,C,C, B,,B,,A,,A,, | G,,G,,G,,G,, G,,G,,G,,G,, | A,,A,,A,,A,, A,,2 z2 | %58
!p! B,,2 z2 z4 | B,,B,,B,,B,, B,,B,,B,,B,, | B,,2 z2 z4 |!f! B,,B,,B,,B,, B,,B,,B,,B,, | %62
!p! E,E,E,E, E,E,E,E, | E,E,E,E, E,E,E,E, | E,2 z2 !wedge!E,2 !wedge!E,2 | !wedge!E,2 z2 z4 :| %66
 z2!f! !wedge!A,2 !wedge!E,2 !wedge!F,2 | ^D,4 ^D4 | z =DDD DDDD | %69
 (DG,)!wedge!C!wedge!C (CB,)!wedge!B,!wedge!B, | %70
 (B,A,)!wedge!A,!wedge!A, !wedge!A,!wedge!A,!wedge!A,!wedge!A, | %71
 (A,^D,)!wedge!G,!wedge!G, (G,F,)!wedge!F,!wedge!F, | (F,E,)!wedge!E,!wedge!E, E,E,E,E, | %73
 F,F,F,F, F,F,F,F, | G,G,G,G, G,G,G,G, | A,A,F,F, =D,D,^B,,B,, | C,C,C,C, C,C,C,C, | %77
 C,2 C,2 C,2 C,2 | !fermata!C,8 |!p!"^pizz." A,,4 z4 | A,,4 z4 | A,,4 z4 | E,4 z4 | A,,4 z4 | %84
 A,,4 z4 | ^A,,4 z4 | B,,4 z4 | ^G,4 z4 | C,2!ff!"^coll' arco" !wedge!E2 !wedge!^B,2 !wedge!C2 | %89
 A,4 G,4 | F,4 E,4 | D,4 C,4 | B,,4 =G,,4 | F,,4 z4 | z8 | z8 | z8 | z8 |!p! (F4 =F2) z2 | %99
 (E4 ^D2) z2 | (.E.E.E.E) EEEE | =CCCC CCCC |"_cresc." =CCCC CCCC | =CCCC ^CCCC | DDDD B,B,B,B, | %105
!ff! ^G,G,G,G, A,A,A,A, | E,2 z2 z4 | z8 | z8 |!p! (D4 !wedge!B,2) z2 | (C4 !wedge!A,2) z2 | %111
 (D,4 !wedge!B,,2) z2 | %112
 !wedge!E,!wedge!^E,!wedge!F,!wedge!G, !wedge!A,!wedge!^A,!wedge!B,!wedge!C | %113
 !wedge!D!wedge!^D!wedge!E!wedge!F E2 E,2 |!f! !wedge!A,2 !wedge!F2 !wedge!^D2 !wedge!E2 | %115
 =C4 B,2 ^C>^D | E!wedge!A,!wedge!A,!wedge!A, !wedge!A,!wedge!A,!wedge!A,!wedge!A, | %117
 A,A,A,A, A,A,A,A, | G,G,F,F, E,E,D,D, | C,C,C,C, C,C,C,C, | D,D,D,D, !wedge!D,2 z2 | %121
!p! E,2 z2 z4 |!f! E,E,E,E, E,E,E,E, | A,2 z2 z4 |!f! E,E,E,E, E,E,E,E, | %125
!p! A,,A,,A,,A,, A,,A,,A,,A,, | A,,A,,A,,A,, A,,A,,A,,A,, | A,,2 z2 !wedge!A,,2 !wedge!A,,2 | %128
 !wedge!A,,2 z2 z4 |] %129

